packages/kaspersky-hexa-ui-icons/src/iconsSVGs/24/ShieldCracked2.svg

<svg width="24" height="24" viewBox="0 0 24 24" fill="none" xmlns="http://www.w3.org/2000/svg">
<path fill-rule="evenodd" clip-rule="evenodd" d="M11.3213 2.25248C11.8476 2.05591 12.4371 2.08892 12.9424 2.35111L19.5029 5.75639C19.8342 5.92833 20.0419 6.2709 20.042 6.64408V11.814C20.042 12.811 19.9289 13.8906 19.5117 14.9165C18.3863 17.6835 16.6034 19.44 15.1016 20.5015C14.3519 21.0314 13.6702 21.3906 13.1699 21.6187C12.9195 21.7328 12.7131 21.815 12.5654 21.8697C12.4916 21.897 12.4318 21.9168 12.3887 21.9312C12.3674 21.9383 12.3501 21.9446 12.3369 21.9488C12.3303 21.9509 12.3238 21.9523 12.3193 21.9537C12.3172 21.9543 12.3151 21.9551 12.3135 21.9556L12.3115 21.9566L12.0215 20.9996L12.3096 21.9566C12.134 22.0095 11.947 22.0134 11.7695 21.9673H11.7676L11.7656 21.9663C11.7638 21.9659 11.7611 21.965 11.7588 21.9644C11.7541 21.9631 11.7479 21.9614 11.7412 21.9595C11.7275 21.9557 11.7093 21.9513 11.6875 21.9449C11.6431 21.9318 11.5822 21.9123 11.5068 21.8872C11.3561 21.8371 11.146 21.7615 10.8916 21.6538C10.3831 21.4386 9.69097 21.0945 8.93164 20.5708C7.40784 19.5199 5.61409 17.7467 4.49512 14.8687C4.10681 13.8697 4 12.8245 4 11.856V6.64408C4.00013 6.27095 4.20791 5.92835 4.53906 5.75639L11.0996 2.35111L11.3213 2.25248ZM6 7.25151V11.856C6 12.6902 6.09461 13.4618 6.35938 14.1431C7.30826 16.5838 8.81144 18.0582 10.0674 18.9244C10.6975 19.3589 11.2663 19.6408 11.6709 19.8121C11.7997 19.8666 11.9127 19.9078 12.0039 19.941C12.0961 19.9042 12.2096 19.8578 12.3398 19.7984C12.7458 19.6134 13.3157 19.315 13.9473 18.8687C15.2083 17.9774 16.7073 16.5037 17.6592 14.1636C17.9418 13.4687 18.042 12.6748 18.042 11.814V7.25151L14.8398 5.5894L13.4424 9.05326L15.8369 11.3023L15.9385 11.4146C16.1541 11.6892 16.2136 12.0608 16.085 12.3931L14.9326 15.3619C14.7327 15.8766 14.1525 16.132 13.6377 15.9322C13.1231 15.7322 12.8675 15.152 13.0674 14.6372L13.9756 12.2974L11.5742 10.0425C11.2738 9.76018 11.177 9.32234 11.3311 8.93998L13.0566 4.66361L12.0215 4.12651L6 7.25151Z" fill="black"/>
</svg>

<svg xmlns="http://www.w3.org/2000/svg" width="24" height="24" fill="none" viewBox="0 0 24 24"><path fill="#000" fill-rule="evenodd" d="M11.3213 2.2525a2 2 0 0 1 1.6211.0986l6.5605 3.4053c.3313.172.539.5145.5391.8877v5.1699c0 .997-.1131 2.0766-.5303 3.1025-1.1254 2.767-2.9083 4.5235-4.4101 5.585-.7497.5299-1.4314.8891-1.9317 1.1172a9 9 0 0 1-.6045.251c-.0738.0273-.1336.0471-.1767.0615-.0213.0071-.0386.0134-.0518.0176-.0066.0021-.0131.0035-.0176.0049l-.0058.0019-.002.001-.29-.957.2881.957a1 1 0 0 1-.5401.0107h-.0019l-.002-.001-.0068-.0019-.0176-.0049c-.0137-.0038-.0319-.0082-.0537-.0146a6 6 0 0 1-.1807-.0577 8.3 8.3 0 0 1-.6152-.2334c-.5085-.2152-1.2006-.5593-1.96-1.083-1.5238-1.0509-3.3175-2.8241-4.4365-5.7021C4.1068 13.8697 4 12.8245 4 11.856V6.644a1.001 1.001 0 0 1 .539-.8876l6.5606-3.4053zM6 7.2515v4.6045c0 .8342.0946 1.6058.3594 2.2871.9489 2.4407 2.452 3.9151 3.708 4.7813.6301.4345 1.1989.7164 1.6035.8877a6.7 6.7 0 0 0 .333.1289 7.4 7.4 0 0 0 .3359-.1426c.406-.185.9759-.4834 1.6075-.9297 1.261-.8913 2.76-2.365 3.7119-4.7051.2826-.6949.3828-1.4888.3828-2.3496V7.2515l-3.2022-1.6621-1.3974 3.4639 2.3945 2.249.1016.1123c.2156.2746.2751.6462.1465.9785l-1.1524 2.9688c-.1999.5147-.7801.7701-1.2949.5703-.5146-.2-.7702-.7802-.5703-1.295l.9082-2.3398-2.4014-2.2549a1 1 0 0 1-.2431-1.1025l1.7255-4.2764-1.0351-.5371z"/></svg>
